X: 1105
T: All Alive
R:double jig
N:"collected by J.O'Neill"
B:O'Neill's 1105
Z:Transcribed by henrik.norbeck@mailbox.swipnet.se
M:6/8
L:1/8
K:Gm
(G/A/)|BdB cAc|(B<G)G G2A|BdB cdB|(A<F)F F2A|
B>AB cBc|d2g gfe|d>cB (A/B/c)A|BGG G2:|
A|Bdg fdB|fdB fdB|Acf cAF|cAF cAF|
Bdg fdB|bag fdB|(c/d/e)c (A/B/c)A|BGG G2:|


